X: 2135
T: Polonäs, sexdregasamlingen del 2 nr 66
B: Sexdregasamlingen del 2 nr 66
S: efter Anders Larsson
O: Sexdrega, Västergötland
R: Slängpolska
Z: 2011-11-16 av Nils L
M: 3/4
L: 1/16
K: D
defg a2ab g2ga | f2fg e4 (dcBA) | BcBA G2F2 E2d2 | c2BA d4 D4 ::
F4 G2B2 A4 | G2FE F2ED A4 | F4 G2B2 A4 | G2FE F2ED A4 |
ABcd e2g2 f2ed | ABcA d4 D4 :|
(:musicend:)
(:music:)
